usr/share/icons/biglinux-icons-material-dark/symbolic/actions/code-function.svg

<svg xmlns="http://www.w3.org/2000/svg" viewBox="0 0 16 16">
<defs id="defs3051">
<style id="current-color-scheme" type="text/css">
.ColorScheme-Contrast{color:#dedede}
</style>
</defs>
<path d="M4 4v1h4V4zm5 0v7h5V4zM2 6v1h4V6zm1 2v1h3V8zm2 2v1h3v-1z" class="ColorScheme-Contrast" style="fill:currentColor;fill-opacity:1;stroke:none"/>
</svg>

<svg xmlns="http://www.w3.org/2000/svg" viewBox="0 0 16 16">
  <defs id="defs3051">
    <style type="text/css" id="current-color-scheme">
      .ColorScheme-Text {
        color:#dedede;
      }
      </style>
  </defs>
 <path style="fill:currentColor;fill-opacity:1;stroke:none" 
     d="M 4 4 L 4 5 L 8 5 L 8 4 L 4 4 z M 9 4 L 9 11 L 14 11 L 14 4 L 9 4 z M 2 6 L 2 7 L 6 7 L 6 6 L 2 6 z M 3 8 L 3 9 L 6 9 L 6 8 L 3 8 z M 5 10 L 5 11 L 8 11 L 8 10 L 5 10 z "
     class="ColorScheme-Text"
     />
</svg>
